X: 15958
T: Grant Wood Reversed Into My Dad's Fence
R: jig
M: 6/8
K: Dmajor
M:7/8
"D" a2 ga fed|e2 ef B3|"G" AB d2 dAB|gA fa edB|
"D" a2 ga fed|e2 ef B3|"G" AB d2 dAB|1 cd e2 ecd:|2 g2 fe dc/B/A||
|:"G" AB d2 def|"A" e2 ef edB|"Bm" AB d2 dfg|"D" a2 f2 edB|
"G" AB d2 def|"A" e2 ef edB|1 "Bm" fg g2 gfe|"A" ed B2 BAF:|
[2"A" fg g2 gab|a2 a2 fed|:"G" G2 d2 dcd|"D" F2 de edc|
"A" Bd e2 ede|"Bm" f2 e2 edc|"G" G2 d2 dcd|"D" F2 de edc|
[1"A" Bd e2 ede|"Bm" g2 fe dcA:|2 "A" a2 a2 a2 b|f2 ed"G" de/f/g||

